src/asset/image/pengesedler.svg

<svg width="42" height="32" viewBox="0 0 42 32" fill="none" xmlns="http://www.w3.org/2000/svg">
<rect x="3.23047" width="38.7692" height="20.8" fill="#E3B0A8"/>
<rect x="33.9219" width="4.84615" height="20.8" fill="#F1D8D4"/>
<rect x="1.61719" y="1.6001" width="38.7692" height="20.8" fill="#C2EAF7"/>
<rect x="32.3086" y="1.6001" width="4.84615" height="20.8" fill="#E0F5FB"/>
<rect y="3.2002" width="38.7692" height="20.8" fill="#9BD0B0"/>
<rect x="30.6914" y="3.2002" width="4.84616" height="20.8" fill="#CDE7D8"/>
<path fill-rule="evenodd" clip-rule="evenodd" d="M4.84766 12.6949V6.51008H5.82451L9.60432 11.366V6.51008H10.5174V12.6949H9.5405L5.7607 7.8348V12.6949H4.84766ZM11.828 9.68266C11.828 8.65607 12.1487 7.85238 12.7902 7.27158C13.4316 6.69079 14.2595 6.40039 15.274 6.40039C15.9384 6.40039 16.5372 6.5368 17.0707 6.80962C17.6041 7.08244 18.0107 7.46284 18.2905 7.95082C18.5703 8.4388 18.7102 8.99217 18.7102 9.61094C18.7102 10.2381 18.5629 10.7992 18.2684 11.2943C17.9739 11.7893 17.5566 12.164 17.0167 12.4186C16.4767 12.6731 15.8942 12.8004 15.2691 12.8004C14.5917 12.8004 13.9863 12.6598 13.4528 12.3785C12.9194 12.0972 12.5153 11.7133 12.2404 11.2268C11.9655 10.7402 11.828 10.2255 11.828 9.68266ZM12.8098 9.69531C12.8098 10.4406 13.043 11.0278 13.5093 11.4567C13.9756 11.8856 14.5606 12.1001 15.2642 12.1001C15.9809 12.1001 16.5708 11.8835 17.0338 11.4504C17.4969 11.0172 17.7284 10.4027 17.7284 9.60672C17.7284 9.10327 17.6294 8.66381 17.4315 8.28833C17.2335 7.91285 16.9438 7.62175 16.5626 7.41502C16.1813 7.2083 15.7535 7.10494 15.2789 7.10494C14.6048 7.10494 14.0247 7.30393 13.5388 7.70191C13.0528 8.09989 12.8098 8.76435 12.8098 9.69531ZM19.8981 12.6949V6.51008H20.8505V9.57719L24.4241 6.51008H25.7151L22.6962 9.01608L25.8477 12.6949H24.591L22.0286 9.56453L20.8505 10.5517V12.6949H19.8981Z" fill="#117938"/>
<path d="M8.07873 32.0002C11.6473 32.0002 14.5403 29.1348 14.5403 25.6002C14.5403 22.0656 11.6473 19.2002 8.07873 19.2002C4.51012 19.2002 1.61719 22.0656 1.61719 25.6002C1.61719 29.1348 4.51012 32.0002 8.07873 32.0002Z" fill="#FFD399"/>
<path fill-rule="evenodd" clip-rule="evenodd" d="M12.9219 27.1999C12.9219 29.8509 15.0916 31.9999 17.768 31.9999C20.4445 31.9999 22.6142 29.8509 22.6142 27.1999C22.6142 24.5489 20.4445 22.3999 17.768 22.3999C15.0916 22.3999 12.9219 24.5489 12.9219 27.1999ZM19.3834 27.1999C19.3834 28.0836 18.6602 28.7999 17.768 28.7999C16.8759 28.7999 16.1526 28.0836 16.1526 27.1999C16.1526 26.3162 16.8759 25.5999 17.768 25.5999C18.6602 25.5999 19.3834 26.3162 19.3834 27.1999Z" fill="#E7E9E9"/>
</svg>

<svg width="42" height="32" viewBox="0 0 42 32" fill="none" xmlns="http://www.w3.org/2000/svg"><path fill="#E3B0A8" d="M3.23 0h38.769v20.8H3.23z"/><path fill="#F1D8D4" d="M33.922 0h4.846v20.8h-4.846z"/><path fill="#C2EAF7" d="M1.617 1.6h38.769v20.8H1.617z"/><path fill="#E0F5FB" d="M32.309 1.6h4.846v20.8h-4.846z"/><path fill="#9BD0B0" d="M0 3.2h38.769V24H0z"/><path fill="#CDE7D8" d="M30.691 3.2h4.846V24h-4.846z"/><path fill-rule="evenodd" clip-rule="evenodd" d="M4.848 12.695V6.51h.977l3.78 4.856V6.51h.912v6.185h-.976l-3.78-4.86v4.86h-.913zm6.98-3.012c0-1.027.32-1.83.962-2.411.642-.581 1.47-.872 2.484-.872.664 0 1.263.137 1.797.41.533.272.94.653 1.22 1.14.28.489.42 1.042.42 1.66a3.23 3.23 0 01-.443 1.684c-.294.495-.711.87-1.251 1.125a4.047 4.047 0 01-1.748.381c-.677 0-1.283-.14-1.816-.421a2.912 2.912 0 01-1.213-1.152 3.092 3.092 0 01-.412-1.544zm.982.012c0 .746.233 1.333.7 1.762.466.429 1.05.643 1.754.643.717 0 1.307-.216 1.77-.65.463-.433.694-1.047.694-1.843 0-.504-.099-.943-.297-1.319a2.08 2.08 0 00-.868-.873 2.649 2.649 0 00-1.284-.31c-.674 0-1.254.199-1.74.597-.486.398-.73 1.062-.73 1.993zm7.088 3V6.51h.953v3.067l3.573-3.067h1.291l-3.019 2.506 3.152 3.679H24.59l-2.562-3.13-1.178.987v2.143h-.953z" fill="#117938"/><path d="M8.079 32c3.568 0 6.461-2.865 6.461-6.4 0-3.534-2.893-6.4-6.461-6.4-3.569 0-6.462 2.866-6.462 6.4 0 3.535 2.893 6.4 6.462 6.4z" fill="#FFD399"/><path fill-rule="evenodd" clip-rule="evenodd" d="M12.922 27.2c0 2.65 2.17 4.8 4.846 4.8 2.677 0 4.846-2.15 4.846-4.8 0-2.651-2.17-4.8-4.846-4.8s-4.846 2.149-4.846 4.8zm6.461 0c0 .884-.723 1.6-1.615 1.6a1.608 1.608 0 01-1.615-1.6c0-.884.723-1.6 1.615-1.6s1.615.716 1.615 1.6z" fill="#E7E9E9"/></svg>
